X:1
T:Title
%%score { ( 1 3 ) | 2 }
L:1/8
Q:1/4=113
M:6/8
K:Bb
V:1 treble nm="Grand Piano"
V:3 treble 
V:2 bass 
V:1
 [DF]2 [DF] [DF][_D=E][=DF] | [EG]2 [DF] [DF]2 [DB] | [Fd]2 [Fd] [Ec]2 [DB] | G3- G2 G | %4
w: E.~S.~Lorenz * * * *||||
 c2 B A2 G | G2 F F2 [FG] | [FA]2 [FA] [=EG]2 [Ec] | c3- c2 F | d3 B3 | [^FA]3- [FA]2 F | B3 G3 | %11
w: |||||||
 [DF]3- [DF]2 [DF] | [EG]3 [FA]3 | [FB]3- [FB]2 [Ge] | [Fd]3 [Ec]3 | [DB]6 | d3 F3 | %17
w: ||||||
 d2- [Fd] D2 D | [Fc][FB][FA] [FB]2 [FG] | [EB]2 [EA] [EA]3 | e2- [Ae] z2 F | e2- [Ae] z2 F | %22
w: |||||
 [Ad][Ac][_A=B] [=Ac]2 [EA] | [EG]2 [DF] [DF]3 | d2 d d_d=d | f2 c c3 | B2 B BAB | %27
w: |||||
 [DAd]2 [DA] [A,DA]3 | [B,EG]2 [B,FA] [B,GB][B,FA][B,EG] | [B,F]2 [B,FB] [Fc]2 [Fd] | c3 A3 | %31
w: ||||
 [DB]6 |] %32
w: |
V:2
 [B,,B,]2 [B,,B,] [B,,B,]2 [B,,B,] | [B,,B,]2 [B,,B,] [B,,B,]2 [B,,B,] | %2
 [B,,B,]2 [B,,B,] [B,,F,]2 [B,,B,] | [E,B,E]3- [E,B,E]2 [E,B,E] | %4
 [E,G,E]2 [E,G,E] [E,A,F]2 [E,B,E] | [D,B,]2 [D,B,] [_D,B,]2 [D,=B,] | %6
 [C,C]2 [C,C] [C,B,]2 [C,B,] | [F,A,E]3- [F,A,E]2 [F,A,] | [B,F]3 [G,DG]3 | %9
 [D,D]3- [D,D]2 [D,^F,] | [G,D]3 [E,B,E]3 | [B,,B,]3- [B,,B,]2 [B,,B,] | [E,B,]3 [E,C]3 | %13
 [D,B,]3- [D,B,]2 [C,B,] | [F,B,]3 [F,A,]3 | [B,,B,]6 | [B,,B,]2 [B,,B,] [B,,B,]2 [B,,B,] | %17
 [B,,B,]2 [B,,B,] [B,,B,]2 [B,,B,] | [D,B,][D,B,][D,B,] [D,B,]2 [_D,B,] | [C,F,]2 [C,F,] [C,F,]3 | %20
 [F,C]2 [F,C] [F,CF]2 [F,C] | [F,C]2 [F,C] [F,CF]2 [F,C] | [F,E][F,E][F,D] [F,E]2 [F,C] | %23
 [B,,B,]2 [B,,B,] [B,,B,]3 | [B,F]2 [B,F] [B,F][B,=E][B,F] | [A,CF]2 [A,CF] [A,CF]3 | %26
 [G,DG]2 [G,DG] [G,DG][G,D][G,DG] | F,2 F, F,3 | E,2 E, E,E,E, | D,2 D, [C,A,]2 [B,,B,] | %30
 [E,G,E]3 [F,E]3 | [B,,F,]6 |] %32
V:3
 x6 | x6 | x6 | x6 | x6 | x6 | x6 | x6 | x6 | x6 | x6 | x6 | x6 | x6 | x6 | x6 | F2 F D2 D | %17
 .F3 F3 | x6 | x6 | .A3 A3 | .A3 A3 | x6 | x6 | x6 | x6 | x6 | x6 | x6 | x6 | x6 | x6 |] %32

